X:13791
T:Queen of the Rushes, The
R:jig
H:Also played in G. 2nd part sometimes played with =c all the way.
N:Related to The Humours of Ennistymon, #142
D:Planxty
Z:id:hn-jig-6
M:6/8
K:D
AG|:F2D DEF|G2E EFG|F2D DAF|GED DAG|F2D DEF|G2E EFG|ABA GEA|1 DED DAG:|2 DED D2B||
|:c2A Bcd|ecA AGE|d2e fed|ecA A2B|c2A Bcd|ecA AGE|~F3 GEA|1 DED D2B:|2 DED DFG||
~A3 dAF|~A3 dAF|~G3 EFG|EFG EFG|~A3 dAF|~A3 dAG|~F3 GEA|DED DFG|
~A3 dAF|~A3 dAF|~G3 EFG|=cEE EFG|~A3 dAF|~A3 dAG|~F3 GEA|DED D||
